!!!COM: Gabriel Faure/
!!!CNT: Francais
!!!TXO: Francais
!!!OTL: "Une Sainte en un aure/ole"
!!!LYR: Verlaine
!!!OPR: La bonne chanson
!!!OPS: Op. 61
!!!ONM: No. 1
!!!ENC: Emily Thomas
!!!YOR: CD Sheet Music French Art Songs, The Ultimate Collection
!!!YOR: CD Sheet Music, LLC 2003
!!!ODT: 1894/
!!NB: Vocal melody and text encoded.
**kern	**silbe
=0	=0
*clefG2	*
*k[b-e-a-d-]	*
*M3/4	*
*MM[Allegretto con moto]	*
2.r	.
=2	=2
2.r	.
=3	=3
2.r	.
=4	=4
4r	.
{4a-	{U-
4cc	-ne
=5	=5
4b-	Sainte
8a-	en
8a-	son
8f	au-
8f	-re/-
=6	=6
2e-	-o-
4e-}	-le,}
=7	=7
2.r	.
=8	=8
{4f	{U-
4a-	-ne
8f	cha-
8f	-te-
=9	=9
4e-	-laine
4.g-	en
8g-	sa
=10	=10
2.cc-}	tour,}
=11	=11
4r	.
4r	.
{4b-	{Tout
=12	=12
4cc-	ce
4gn	que
4a-	con-
=13	=13
4f	-tient
8g-	la
8g-	pa-
8gn	-role
8gn	hu-
=14	=14
2a-	-mai-
4e-}	-ne}
=15	=15
4r	.
4r	.
{4a-	{De
=16	=16
[2.a-	gra^-
=17	=17
2.a-_	|
=18	=18
4a-]	-ce
4.ee-	et
8cc	d'a-
=19	=19
[2.b-	-mour
=20	=20
4b-]}	|}
4r	.
4r	.
=21	=21
2.r	.
=22	=22
2.r	.
=23	=23
2.r	.
=24	24
4r	.
4r	.
{4b-	{La
=25	=25
2dd-	no-
4a-	-te
=26	=26
2g	d'or
4g	que
=27	=27
2b-	fait
4b-	en-
=28	=28
4aa-	-ten-
4cc-	-dre
4cc-	le
=29	=29
2.b-	cor
=30	=30
4b-	daus
4g	le
4b-	loin-
=31	=31
2dd-	-tain
4a-	des
=32	=32
2.g}	bois,}
=33	=33
4r	.
{4g	{Ma-
4g	-ri-
=34	=34
4.a-	-e/
8b--	a^
4cc-	la
=35	=35
2dd-	fier-
4dd-	-te/
=36	=36
4dd-	ten-
4cc-	-dre
4b--	des
=37	=37
4.cc-	no-
8cc-	-bles
[4cc-	da-
=38	=38
8cc-]	|
8cc-	-mes
4b-	d'au-
4b-	-tre-
=39	=39
2.a-}	-fois;}
=40	=40
4r	.
4r	.
{4f	{A-
=41	=41
4.g	-vec
8g	ce-
[4a-	-la
=42	=42
8a-]	|
8a-	le
4cc	charme
4ee-	in-
=43	=43
[2.dd-	-si-
=44	=44
4dd-]	|
8cc}	-gne}
8r	.
8r	.
{8a-	{d'un
=45	=45
4.dd-	frais
8dd-	sour-
[4dd-	-i-
=46	=46
8dd-]	|
8dd-	-re
4cc-	tri-
4a-	-om-
=47	=47
[2.ff-	-phant
=48	=48
4ff-]}	|}
4r	.
4r	.
=49	=49
2.r	.
=50	=50
2.r	.
=51	=51
4r	.
4r	.
{4cc	{E-
=52	=52
4b-	-clos
4g-	dans
8a-	des
8b-	can-
=53	=53
2cc	-deurs
4ee-	de
=54	=54
2.b-	ev-
=55	=55
[2.cc	-gne
=56	=56
4cc]}	|}
4r	.
4r	.
=57	=57
4r	.
{4cc	{Et
8b-	des
8cc	rou-
=58	=58
8ddn	-geurs
8b-	de
4.b-	temme
8g	en
=59	=59
2.g}	-fant,}
=60	=60
4r	.
{4g	{Des
4g	as-
=61	=61
4.cc	-pects
8cc	na-
[4ee-	-cre/s
=62	=62
4ee-]	|
4b-	blancs
4ee-	et
=63	=63
2ee-	ro-
4ddn	|
=64	=64
2.cc}	-ses,}
=65	=65
4r	.
4r	.
{4cc	{Un
=66	=66
4.cc	doux
8cc	acc-
4cc	-ord
=67	=67
4.dd-	pa-
8b-	-tri-
4g-	-ci-
=68	=68
[2.a-	-en,
=69	=69
2a-]}	|}
4r	.
=70	=70
2.r	.
=71	=71
4r	.
4r	.
{4an	{Je
=72	=72
[2.cc	vois,
=73	=73
8cc]}	|}
8r	.
4r	.
{4a-	{J'en-
=74	=74
2.cc	-tends
=75	=75
4cc	tou-
4b-	-tes
4a-	ces
=76	=76
2.ee-	cho-
=77	=77
2.cc}	-ses}
=77	=77
4r	.
{4b-	{Dans
4cc	son
=78	=78
[2.a-	nom
=79	=79
2.a-]}	|}
=80	=80
{2a-	{Car-
4cc	-lo-
=81	=81
2b-	-vin-
4a-	-gi-
=82	=82
[2.a-	-en.
=83	=83
2.a-_	|
=84	=84
4a-]}	|}
4r	.
4r	.
==	==
*-	*-
